flaticon/technology/imac.svg

<svg xmlns="http://www.w3.org/2000/svg" width="32" height="32" viewBox="0 0 24 24">
    <path d="M 22.199219 0.601562 L 1.800781 0.601562 C 0.808594 0.601562 0 1.40625 0 2.398438 L 0 17.199219 C 0 18.191406 0.808594 19 1.800781 19 L 8.941406 19 C 9 19.699219 8.695312 20.394531 8.132812 20.789062 L 7.410156 21.296875 C 7.367188 21.328125 7.328125 21.367188 7.296875 21.410156 C 6.792969 21.464844 6.398438 21.882812 6.398438 22.398438 C 6.398438 22.953125 6.847656 23.398438 7.398438 23.398438 L 16.601562 23.398438 C 17.152344 23.398438 17.601562 22.953125 17.601562 22.398438 C 17.601562 21.882812 17.207031 21.464844 16.703125 21.410156 C 16.671875 21.367188 16.636719 21.328125 16.589844 21.296875 L 15.867188 20.789062 C 15.304688 20.394531 15.003906 19.703125 15.058594 19 L 22.199219 19 C 23.191406 19 24 18.191406 24 17.199219 L 24 2.398438 C 24 1.40625 23.191406 0.601562 22.199219 0.601562 Z M 0.800781 2.398438 C 0.800781 1.847656 1.25 1.398438 1.800781 1.398438 L 22.199219 1.398438 C 22.75 1.398438 23.199219 1.847656 23.199219 2.398438 L 23.199219 14.601562 L 0.800781 14.601562 Z M 16.601562 22.601562 L 7.398438 22.601562 C 7.292969 22.601562 7.199219 22.507812 7.199219 22.398438 C 7.199219 22.292969 7.292969 22.199219 7.398438 22.199219 L 16.601562 22.199219 C 16.707031 22.199219 16.800781 22.292969 16.800781 22.398438 C 16.800781 22.507812 16.707031 22.601562 16.601562 22.601562 Z M 14.257812 19 C 14.203125 19.933594 14.609375 20.847656 15.347656 21.398438 L 8.652344 21.398438 C 9.390625 20.847656 9.796875 19.933594 9.742188 19 Z M 23.199219 17.199219 C 23.199219 17.75 22.75 18.199219 22.199219 18.199219 L 1.800781 18.199219 C 1.25 18.199219 0.800781 17.75 0.800781 17.199219 L 0.800781 15.398438 L 23.199219 15.398438 Z M 23.199219 17.199219"/>
    <path d="M2 4.601562C2.101562 4.601562 2.203125 4.5625 2.28125 4.484375L3.882812 2.882812C4.039062 2.726562 4.039062 2.472656 3.882812 2.316406 3.726562 2.160156 3.472656 2.160156 3.316406 2.316406L1.71875 3.917969C1.5625 4.074219 1.5625 4.328125 1.71875 4.484375 1.796875 4.5625 1.898438 4.601562 2 4.601562zM2 6.601562C2.101562 6.601562 2.203125 6.5625 2.28125 6.484375L3.082031 5.683594C3.238281 5.527344 3.238281 5.273438 3.082031 5.117188 2.925781 4.960938 2.671875 4.960938 2.515625 5.117188L1.71875 5.917969C1.5625 6.074219 1.5625 6.328125 1.71875 6.484375 1.796875 6.5625 1.898438 6.601562 2 6.601562zM3.316406 4.316406C3.242188 4.390625 3.199219 4.496094 3.199219 4.601562 3.199219 4.703125 3.242188 4.808594 3.316406 4.882812 3.390625 4.957031 3.492188 5 3.601562 5 3.703125 5 3.808594 4.957031 3.882812 4.882812 3.957031 4.808594 4 4.703125 4 4.601562 4 4.496094 3.957031 4.390625 3.882812 4.316406 3.730469 4.167969 3.46875 4.167969 3.316406 4.316406zM4.117188 4.082031C4.195312 4.160156 4.296875 4.199219 4.398438 4.199219 4.503906 4.199219 4.605469 4.160156 4.683594 4.082031L5.882812 2.882812C6.039062 2.726562 6.039062 2.472656 5.882812 2.316406 5.726562 2.160156 5.472656 2.160156 5.316406 2.316406L4.117188 3.515625C3.960938 3.671875 3.960938 3.925781 4.117188 4.082031zM5.316406 4.316406L1.71875 7.917969C1.5625 8.074219 1.5625 8.328125 1.71875 8.484375 1.796875 8.5625 1.898438 8.601562 2 8.601562 2.101562 8.601562 2.203125 8.5625 2.28125 8.484375L5.882812 4.882812C6.039062 4.726562 6.039062 4.472656 5.882812 4.316406 5.726562 4.160156 5.472656 4.160156 5.316406 4.316406zM6.117188 3.515625C6.042969 3.59375 6 3.691406 6 3.800781 6 3.90625 6.042969 4.007812 6.117188 4.085938 6.191406 4.15625 6.292969 4.199219 6.398438 4.199219 6.507812 4.199219 6.609375 4.15625 6.683594 4.085938 6.757812 4.007812 6.800781 3.90625 6.800781 3.800781 6.800781 3.691406 6.757812 3.59375 6.683594 3.515625 6.535156 3.367188 6.265625 3.367188 6.117188 3.515625zM7.316406 2.316406L6.917969 2.71875C6.761719 2.875 6.761719 3.125 6.917969 3.28125 6.996094 3.359375 7.097656 3.398438 7.199219 3.398438 7.300781 3.398438 7.40625 3.359375 7.484375 3.28125L7.882812 2.882812C8.039062 2.726562 8.039062 2.472656 7.882812 2.316406 7.726562 2.160156 7.472656 2.160156 7.316406 2.316406zM7.316406 2.316406"/>
</svg>

<svg xmlns="http://www.w3.org/2000/svg" width="32" height="32" viewBox="0 0 24 24">
    <path d="M22.2.602H1.8A1.8 1.8 0 0 0 0 2.398V17.2C0 18.191.809 19 1.8 19h7.141c.059.7-.246 1.395-.808 1.79l-.723.507a.52.52 0 0 0-.113.113.999.999 0 0 0-.899.988 1 1 0 0 0 1 1h9.204a1 1 0 0 0 1-1 .999.999 0 0 0-.899-.988.446.446 0 0 0-.113-.113l-.723-.508c-.562-.394-.863-1.086-.808-1.789h7.14c.992 0 1.801-.809 1.801-1.8V2.397A1.8 1.8 0 0 0 22.2.602zM.8 2.398c0-.55.45-1 1-1h20.4c.55 0 1 .45 1 1v12.204H.8zm15.802 20.204H7.398a.206.206 0 0 1-.199-.204c0-.105.094-.199.2-.199h9.203c.105 0 .199.094.199.2 0 .109-.094.203-.2.203zM14.258 19c-.055.934.351 1.848 1.09 2.398H8.652c.739-.55 1.145-1.464 1.09-2.398zm8.941-1.8c0 .55-.449 1-1 1H1.801c-.551 0-1-.45-1-1v-1.802h22.398zm0 0"/>
    <path d="M2 4.602c.102 0 .203-.04.281-.118l1.602-1.601a.4.4 0 0 0-.567-.567L1.72 3.918A.4.4 0 0 0 2 4.602zm0 0M2 6.602c.102 0 .203-.04.281-.118l.801-.8a.4.4 0 0 0-.566-.567l-.797.801A.4.4 0 0 0 2 6.602zm0 0M3.316 4.316a.409.409 0 0 0-.117.286.402.402 0 0 0 .8 0 .409.409 0 0 0-.116-.286.416.416 0 0 0-.567 0zm0 0M4.117 4.082a.399.399 0 0 0 .566 0l1.2-1.2a.4.4 0 0 0-.567-.566l-1.199 1.2a.4.4 0 0 0 0 .566zm0 0M5.316 4.316L1.72 7.918A.4.4 0 0 0 2 8.602c.102 0 .203-.04.281-.118l3.602-3.601a.4.4 0 0 0-.567-.567zm0 0M6.117 3.516A.409.409 0 0 0 6 3.8c0 .105.043.207.117.285a.413.413 0 0 0 .567 0A.416.416 0 0 0 6.8 3.8a.409.409 0 0 0-.117-.285.416.416 0 0 0-.567 0zm0 0M7.316 2.316l-.398.403a.396.396 0 0 0 0 .562c.078.078.18.117.281.117.102 0 .207-.039.285-.117l.399-.398a.4.4 0 0 0-.567-.567zm0 0"/>
</svg>
